src/22/mimetypes/application-x-sharedlib.svg

<?xml version="1.0" encoding="UTF-8" standalone="no"?>
<!-- Created with Inkscape (http://www.inkscape.org/) -->

<svg
   xmlns:dc="http://purl.org/dc/elements/1.1/"
   xmlns:cc="http://creativecommons.org/ns#"
   xmlns:rdf="http://www.w3.org/1999/02/22-rdf-syntax-ns#"
   xmlns:svg="http://www.w3.org/2000/svg"
   xmlns="http://www.w3.org/2000/svg"
   xmlns:sodipodi="http://sodipodi.sourceforge.net/DTD/sodipodi-0.dtd"
   xmlns:inkscape="http://www.inkscape.org/namespaces/inkscape"
   width="22"
   version="1.1"
   height="22"
   id="svg2"
   inkscape:version="0.91 r13725"
   sodipodi:docname="application-x-sharedlib.svg">
  <sodipodi:namedview
     pagecolor="#ffffff"
     bordercolor="#666666"
     borderopacity="1"
     objecttolerance="10"
     gridtolerance="10"
     guidetolerance="10"
     inkscape:pageopacity="0"
     inkscape:pageshadow="2"
     inkscape:window-width="1360"
     inkscape:window-height="708"
     id="namedview12"
     showgrid="true"
     inkscape:zoom="14.16"
     inkscape:cx="3.3198425"
     inkscape:cy="13.297637"
     inkscape:window-x="0"
     inkscape:window-y="0"
     inkscape:window-maximized="1"
     inkscape:current-layer="layer1">
    <inkscape:grid
       type="xygrid"
       id="grid4140" />
  </sodipodi:namedview>
  <defs
     id="defs3871" />
  <metadata
     id="metadata3874">
    <rdf:RDF>
      <cc:Work
         rdf:about="">
        <dc:format>image/svg+xml</dc:format>
        <dc:type
           rdf:resource="http://purl.org/dc/dcmitype/StillImage" />
      </cc:Work>
    </rdf:RDF>
  </metadata>
  <g
     inkscape:label="Capa 1"
     inkscape:groupmode="layer"
     id="layer1"
     transform="matrix(1 0 0 1 -326 -534.3622)">
    <path
       style="fill:#555555"
       d="M 6.9707031 2.9980469 C 6.8418231 2.9980469 6.7379069 3.0912044 6.7167969 3.2089844 L 6.5253906 4.5332031 C 6.2120906 4.6609731 5.92178 4.8253906 5.65625 5.0253906 L 4.375 4.5234375 C 4.25945 4.4812375 4.12695 4.5230994 4.0625 4.6308594 L 3.0351562 6.3632812 C 2.9706562 6.4710512 2.9990031 6.6058337 3.0957031 6.6835938 L 4.1796875 7.5117188 C 4.1585875 7.6716988 4.1445312 7.83446 4.1445312 8 C 4.1445312 8.16444 4.1596875 8.3263481 4.1796875 8.4863281 L 3.0957031 9.3144531 C 2.9979031 9.3889531 2.9707163 9.5247656 3.0351562 9.6347656 L 4.0625 11.367188 C 4.127 11.474957 4.25945 11.519039 4.375 11.474609 L 5.65625 10.972656 C 5.92067 11.170426 6.2120906 11.337074 6.5253906 11.464844 L 6.7167969 12.789062 C 6.7378969 12.906832 6.8418231 13 6.9707031 13 L 9.0273438 13 C 9.1562237 13 9.26014 12.906842 9.28125 12.789062 L 9.4726562 11.464844 C 9.7859762 11.337074 10.076257 11.172656 10.341797 10.972656 L 11.621094 11.474609 C 11.736634 11.516809 11.871117 11.474957 11.935547 11.367188 L 12.962891 9.6347656 C 13.027391 9.5269956 12.999144 9.3922231 12.902344 9.3144531 L 11.818359 8.4863281 C 11.839459 8.3263481 11.853516 8.16554 11.853516 8 C 11.853516 7.83446 11.838359 7.6716988 11.818359 7.5117188 L 12.904297 6.6835938 C 13.002097 6.6090938 13.029294 6.4732813 12.964844 6.3632812 L 11.9375 4.6308594 C 11.873 4.5230994 11.74055 4.4789975 11.625 4.5234375 L 10.34375 5.0253906 C 10.07933 4.8276206 9.7879094 4.6609731 9.4746094 4.5332031 L 9.2832031 3.2089844 C 9.2599031 3.0912144 9.1551137 2.9980469 9.0273438 2.9980469 L 6.9707031 2.9980469 z M 8 6 A 2 2 0 0 1 10 8 A 2 2 0 0 1 8 10 A 2 2 0 0 1 6 8 A 2 2 0 0 1 8 6 z "
       transform="translate(326,534.3622)"
       id="path6" />
    <path
       style="fill:#555555"
       d="M 14.134766 11.005859 C 14.038766 10.981859 13.944783 11.033411 13.908203 11.119141 L 13.525391 12.091797 C 13.269321 12.130697 13.022272 12.203801 12.789062 12.306641 L 11.927734 11.6875 C 11.848934 11.6338 11.741278 11.641237 11.673828 11.710938 L 10.597656 12.839844 C 10.530256 12.909544 10.526437 13.019143 10.585938 13.095703 L 11.244141 13.925781 C 11.199541 14.043471 11.158626 14.163373 11.128906 14.289062 C 11.099206 14.414763 11.080959 14.541129 11.068359 14.667969 L 10.111328 15.097656 C 10.024528 15.136556 9.9803725 15.234088 10.007812 15.330078 L 10.460938 16.835938 C 10.490637 16.929638 10.580088 16.989132 10.673828 16.976562 L 11.71875 16.830078 C 11.87993 17.028908 12.065051 17.210974 12.275391 17.365234 L 12.181641 18.408203 C 12.175641 18.500803 12.237934 18.591234 12.333984 18.615234 L 13.863281 18.994141 C 13.959281 19.018141 14.055217 18.965389 14.091797 18.880859 L 14.474609 17.908203 C 14.730679 17.869403 14.975774 17.796199 15.208984 17.693359 L 16.072266 18.3125 C 16.151066 18.3662 16.256769 18.356809 16.324219 18.287109 L 17.402344 17.158203 C 17.469744 17.087403 17.473463 16.980857 17.414062 16.904297 L 16.753906 16.072266 C 16.798506 15.954576 16.839421 15.832721 16.869141 15.707031 C 16.898841 15.581331 16.917087 15.454628 16.929688 15.330078 L 17.888672 14.900391 C 17.975472 14.861491 18.019628 14.765912 17.992188 14.669922 L 17.539062 13.162109 C 17.510463 13.069509 17.419912 13.010868 17.326172 13.023438 L 16.28125 13.167969 C 16.12006 12.969139 15.934959 12.790176 15.724609 12.634766 L 15.818359 11.589844 C 15.823359 11.496144 15.762096 11.407626 15.666016 11.384766 L 14.134766 11.005859 z M 14 13 A 2 2 0 0 1 16 15 A 2 2 0 0 1 14 17 A 2 2 0 0 1 12 15 A 2 2 0 0 1 14 13 z "
       transform="translate(326,534.3622)"
       id="path8" />
  </g>
</svg>

<svg xmlns="http://www.w3.org/2000/svg" width="22" height="22"><g fill="#555"><path d="M6.97 2.998a.258.258 0 0 0-.253.211l-.192 1.324a3.865 3.865 0 0 0-.869.492l-1.281-.502a.26.26 0 0 0-.313.108L3.035 6.363a.247.247 0 0 0 .06.32l1.085.829c-.021.16-.035.322-.035.488 0 .164.015.326.035.486l-1.084.828a.244.244 0 0 0-.06.32l1.026 1.733a.257.257 0 0 0 .313.108l1.281-.502c.265.197.556.364.87.492l.19 1.324c.022.118.126.211.255.211h2.056a.258.258 0 0 0 .254-.21l.192-1.325c.313-.128.603-.292.869-.492l1.28.502c.115.042.25 0 .314-.108l1.027-1.732a.247.247 0 0 0-.06-.32l-1.085-.829A3.7 3.7 0 0 0 11.854 8a3.93 3.93 0 0 0-.036-.488l1.086-.828a.244.244 0 0 0 .06-.32L11.938 4.63a.257.257 0 0 0-.312-.108l-1.281.502a3.928 3.928 0 0 0-.87-.492l-.19-1.324a.262.262 0 0 0-.257-.211H6.971zM8 6a2 2 0 0 1 2 2 2 2 0 0 1-2 2 2 2 0 0 1-2-2 2 2 0 0 1 2-2zM14.135 11.006a.195.195 0 0 0-.227.113l-.383.973a2.906 2.906 0 0 0-.736.215l-.861-.62a.198.198 0 0 0-.254.024l-1.076 1.129a.196.196 0 0 0-.012.256l.658.83a2.92 2.92 0 0 0-.115.363 2.88 2.88 0 0 0-.06.379l-.958.43a.193.193 0 0 0-.103.232l.453 1.506c.03.094.12.153.213.14l1.045-.146c.16.199.346.381.556.535l-.093 1.043a.202.202 0 0 0 .152.207l1.53.38a.199.199 0 0 0 .228-.114l.383-.973c.256-.039.5-.112.734-.215l.863.62a.196.196 0 0 0 .252-.026l1.078-1.129a.193.193 0 0 0 .012-.254l-.66-.832c.045-.117.085-.24.115-.365.03-.126.048-.252.06-.377l.96-.43a.19.19 0 0 0 .103-.23l-.453-1.508a.197.197 0 0 0-.213-.139l-1.045.145a3.042 3.042 0 0 0-.556-.533l.093-1.045a.2.2 0 0 0-.152-.205l-1.531-.38zM14 13a2 2 0 0 1 2 2 2 2 0 0 1-2 2 2 2 0 0 1-2-2 2 2 0 0 1 2-2z"/></g></svg>
